src/components/Projekte/Karte/layers/BeobNichtZuzuordnen/beob.svg

<?xml version="1.0" encoding="UTF-8" standalone="no"?>
<svg
   xmlns="http://www.w3.org/2000/svg"
   xmlns:inkscape="http://www.inkscape.org/namespaces/inkscape"
   fill="#000000"
   height="48"
   viewBox="0 0 24 24"
   width="48"
   version="1.1">
  <path
     d="M12 22c4.97 0 9-4.03 9-9-4.97 0-9 4.03-9 9zM5.6 10.25c0 1.38 1.12 2.5 2.5 2.5.53 0 1.01-.16 1.42-.44l-.02.19c0 1.38 1.12 2.5 2.5 2.5s2.5-1.12 2.5-2.5l-.02-.19c.4.28.89.44 1.42.44 1.38 0 2.5-1.12 2.5-2.5 0-1-.59-1.85-1.43-2.25.84-.4 1.43-1.25 1.43-2.25 0-1.38-1.12-2.5-2.5-2.5-.53 0-1.01.16-1.42.44l.02-.19C14.5 2.12 13.38 1 12 1S9.5 2.12 9.5 3.5l.02.19c-.4-.28-.89-.44-1.42-.44-1.38 0-2.5 1.12-2.5 2.5 0 1 .59 1.85 1.43 2.25-.84.4-1.43 1.25-1.43 2.25zM12 5.5c1.38 0 2.5 1.12 2.5 2.5s-1.12 2.5-2.5 2.5S9.5 9.38 9.5 8s1.12-2.5 2.5-2.5zM3 13c0 4.97 4.03 9 9 9 0-4.97-4.03-9-9-9z"
     id="path3694"
     style="fill:#fff4ff;stroke:#000000;stroke-opacity:1;stroke-width:1;stroke-miterlimit:2.79999995;stroke-dasharray:none;fill-opacity:1" />
  <path
     style="stroke-width:0.02542373;fill:#fff4ff;stroke:#000000;stroke-opacity:1;fill-opacity:1"
     d="M 11.681888,14.967518 C 11.13566,14.89992 10.495845,14.56413 10.149614,14.163346 9.7374305,13.686217 9.529343,13.162211 9.523685,12.587132 9.522135,12.429853 9.519285,12.301146 9.517335,12.301115 9.515385,12.301089 9.435371,12.34689 9.339516,12.402903 8.545704,12.86678 7.515699,12.837407 6.743252,12.328864 6.229144,11.990399 5.852316,11.473639 5.6884555,10.882375 5.609216,10.596453 5.609518,9.9114275 5.6890055,9.6243515 5.870284,8.969686 6.3038995,8.4161825 6.8982745,8.080738 L 7.045847,7.997453 6.9231875,7.9303285 C 6.5620505,7.7326975 6.1674975,7.357988 5.967351,7.022564 5.8212895,6.7777805 5.6862415,6.4109935 5.6428915,6.1413415 5.5942515,5.8387925 5.6230965,5.352207 5.706423,5.0695745 5.997499,4.0822783 6.849214,3.3711438 7.8513605,3.2786714 c 0.286347,-0.026422 0.658788,0.00358 0.914124,0.073625 0.1975705,0.054203 0.534871,0.2043101 0.6846985,0.3047084 L 9.532041,3.7118574 9.516716,3.5477302 C 9.4880815,3.2410552 9.5983945,2.7378208 9.7686365,2.3985157 9.9549945,2.0270891 10.281725,1.6531479 10.609264,1.4364239 10.821533,1.2959705 11.140066,1.1529301 11.389516,1.086044 c 0.31075,-0.083323 0.880498,-0.084521 1.204499,-0.00253 1.079562,0.2731824 1.862525,1.2416772 1.880063,2.3255622 0.0024,0.1502982 0.01409,0.2732855 0.02592,0.2733051 0.01182,1.93e-5 0.05459,-0.023527 0.09503,-0.052324 0.04045,-0.028798 0.157816,-0.091301 0.26083,-0.1388966 0.900277,-0.4159531 1.98386,-0.2450059 2.730317,0.4307377 0.31019,0.2808045 0.605849,0.773479 0.718307,1.196959 0.06958,0.2620005 0.09328,0.701055 0.0528,0.977915 -0.108094,0.7392635 -0.544229,1.392005 -1.185507,1.77429 l -0.218267,0.1301155 0.08453,0.04322 c 0.310048,0.1585245 0.742466,0.550905 0.944844,0.8573595 0.421049,0.637583 0.512581,1.4713336 0.243246,2.2156796 -0.222738,0.615566 -0.798468,1.205349 -1.406294,1.440619 -0.349685,0.135352 -0.637302,0.1825 -1.019302,0.167091 -0.221373,-0.0089 -0.397668,-0.0314 -0.533898,-0.06806 -0.211347,-0.05687 -0.569673,-0.21298 -0.697058,-0.303686 -0.04042,-0.02878 -0.07746,-0.05234 -0.08229,-0.05233 -0.0048,3e-6 -0.01011,0.12299 -0.01173,0.273305 -0.01296,1.202483 -0.963701,2.244679 -2.183495,2.393538 -0.256981,0.03136 -0.35411,0.0313 -0.610169,-3.89e-4 z m 0.624018,-4.483442 c 0.38172,-0.03182 0.857413,-0.2255 1.211412,-0.493212 0.490001,-0.3705655 0.820537,-0.906257 0.951148,-1.541501 0.0457,-0.2223035 0.03838,-0.723087 -0.01412,-0.96573 C 14.296985,6.756463 13.8195,6.126898 13.162648,5.780531 11.949847,5.1410045 10.44181,5.603742 9.7878905,6.816067 c -0.212258,0.3935125 -0.288801,0.713724 -0.287108,1.2010925 0.00105,0.298137 0.01184,0.3962805 0.066554,0.6044165 0.22428,0.853212 0.8923395,1.541145 1.7331945,1.784754 0.230993,0.06692 0.586117,0.11404 0.75,0.09951 0.04894,-0.0044 0.163859,-0.01413 0.255374,-0.02177 z"
     id="path3706"
     inkscape:connector-curvature="0" />
</svg>

<svg xmlns="http://www.w3.org/2000/svg" width="48" height="48" viewBox="0 0 24 24"><path d="M12 22a9 9 0 0 0 9-9 9 9 0 0 0-9 9zM5.6 10.25a2.5 2.5 0 0 0 3.92 2.06l-.02.19a2.5 2.5 0 0 0 5 0l-.02-.19c.4.28.89.44 1.42.44a2.5 2.5 0 0 0 2.5-2.5c0-1-.59-1.85-1.43-2.25.84-.4 1.43-1.25 1.43-2.25a2.5 2.5 0 0 0-3.92-2.06l.02-.19a2.5 2.5 0 0 0-5 0l.02.19c-.4-.28-.89-.44-1.42-.44a2.5 2.5 0 0 0-2.5 2.5c0 1 .59 1.85 1.43 2.25-.84.4-1.43 1.25-1.43 2.25zM12 5.5a2.5 2.5 0 0 1 0 5 2.5 2.5 0 0 1 0-5zM3 13a9 9 0 0 0 9 9 9 9 0 0 0-9-9z" style="fill:#fff4ff;stroke:#000;stroke-opacity:1;stroke-width:1;stroke-miterlimit:2.79999995;stroke-dasharray:none;fill-opacity:1"/><path d="M11.682 14.968c-.546-.068-1.186-.404-1.532-.805-.413-.477-.62-1-.626-1.576a5.823 5.823 0 0 0-.007-.286c-.002 0-.082.046-.177.102a2.494 2.494 0 0 1-2.597-.074 2.554 2.554 0 0 1-1.055-1.447c-.079-.286-.078-.97.001-1.258a2.553 2.553 0 0 1 1.21-1.543l.147-.084-.123-.067a2.787 2.787 0 0 1-.956-.907 2.82 2.82 0 0 1-.324-.882c-.049-.302-.02-.789.063-1.071a2.492 2.492 0 0 1 2.145-1.791 2.86 2.86 0 0 1 .914.073c.198.054.535.205.685.305l.082.055-.015-.164c-.029-.307.081-.81.252-1.15.186-.37.513-.745.84-.962.213-.14.531-.283.78-.35.311-.083.881-.084 1.205-.002 1.08.273 1.863 1.241 1.88 2.325.002.15.014.273.026.273a.32.32 0 0 0 .095-.052 2.517 2.517 0 0 1 2.991.292c.31.28.606.773.718 1.197.07.262.094.7.053.978a2.486 2.486 0 0 1-1.185 1.774l-.218.13.084.043c.31.159.743.551.945.858.42.637.512 1.471.243 2.215-.223.616-.798 1.206-1.406 1.441-.35.135-.637.183-1.02.167a2.496 2.496 0 0 1-.533-.068c-.212-.057-.57-.213-.697-.304a.537.537 0 0 0-.083-.052c-.005 0-.01.123-.011.273-.013 1.203-.964 2.245-2.184 2.394a1.98 1.98 0 0 1-.61 0zm.624-4.484c.382-.032.857-.225 1.211-.493.49-.37.82-.906.951-1.542a3.194 3.194 0 0 0-.014-.965 2.543 2.543 0 0 0-1.291-1.703 2.51 2.51 0 0 0-3.375 1.035c-.212.394-.289.714-.287 1.201 0 .298.012.396.066.605a2.542 2.542 0 0 0 1.734 1.784c.23.067.586.114.75.1l.255-.022z" style="stroke-width:.02542373;fill:#fff4ff;stroke:#000;stroke-opacity:1;fill-opacity:1"/></svg>
